images/graphics/mountain_mask_large.svg

<svg width="125" height="480" viewBox="0 0 125 480" fill="none" xmlns="http://www.w3.org/2000/svg">
<path fill-rule="evenodd" clip-rule="evenodd" d="M0 9.01602C0.00409698 9.04736 0.0082016 9.07876 0.0123291 9.1102C1.38636 19.5785 4.77103 35.4633 5.61909 36.4834C60.8964 103.768 -24.7767 28.5954 35.6629 102.493C61.4453 134.024 50.5759 122.748 29.3902 147.519C21.8855 156.275 41.6508 165.748 57.4521 156.74C57.9088 156.476 80.3767 175.267 80.5569 175.535C82.2749 175.309 43.4651 182.836 70.3412 182.446C70.5339 182.446 89.2265 187.873 89.4486 191.32C89.9263 198.772 96.5929 188.175 104.592 200.982C106.511 204.064 116.262 208.316 118.168 209.067C117.976 209.193 100.544 228.655 96.9616 231.611C93.0815 234.823 89.1175 251.891 75.491 251.257C74.7367 251.224 61.1311 257.543 53.8904 257.141C47.6931 256.801 40.3057 273.995 24.7265 280.293C4.7601 288.366 43.7626 278.113 31.192 286.37C20.9427 293.088 24.6511 297.826 8.0159 309.094C6.19315 310.34 1.88979 313.447 0.00419617 315.397V317.028C0.917664 316.898 2.60213 316.345 5.32577 315.191C9.74644 313.321 26.1386 311.308 27.6471 308.863C30.224 304.662 40.7373 288.471 44.1272 288.525C60.3852 288.789 32.5329 309.694 44.0099 304.171C66.0001 293.587 51.7157 298.229 54.9463 292.341C58.3278 295.021 60.5109 293.205 62.5683 293.951C63.9134 297.998 61.9649 298.69 70.8859 289.313C80.36 279.341 84.7052 292.324 96.6515 286.902C101.747 284.583 101.261 293.079 96.6096 298.816C94.2128 301.76 84.6969 323.411 78.8473 337.597C65.7152 348.848 56.9534 362.154 52.5537 377.515C59.1156 365.799 66.4275 356.187 74.5021 348.681C74.3219 349.218 74.2171 349.607 74.1752 349.817C71.4516 366.436 68.4095 362.31 62.8868 372.189C62.0278 378.534 46.2474 391.748 41.6801 409.809C39.254 419.362 22.1285 429.229 14.7831 439.529C0.888336 459.045 8.01169 445.727 1.78922 467.063C1.17326 469.164 0.582436 470.942 0.00837708 472.51V480C3.95975 468.451 13.8487 461.234 16.7022 452.99C22.2962 436.753 34.3891 428.491 46.2474 417.991C58.7762 406.903 57.4185 391.161 64.3785 385.407C69.1679 381.453 81.4536 358.343 83.5278 352.006C83.6744 351.847 83.7624 351.436 83.9426 351.172C84.5251 350.308 84.5251 349.888 84.8728 349.259C85.6983 347.813 84.8519 347.381 84.8854 345.817C84.8854 345.229 86.1341 343.25 86.3059 343.187C86.4023 343.015 86.7207 342.248 86.8045 342.139C87.63 341.153 89.4653 338.566 89.591 337.346C89.6748 336.478 90.714 334.943 90.9151 334.31C91.4683 332.624 92.7295 332.121 93.1401 329.709C93.4586 327.822 94.0829 325.394 95.0802 323.746C95.2813 323.767 100.888 303.697 101.173 302.607C101.215 302.41 101.407 301.948 101.671 301.357C106.39 297.155 107.353 290.337 110.32 285.049C111.678 282.612 106.536 272.967 104.332 269.562C103.167 267.776 103.188 266.82 102.204 265.65C101.6 264.932 99.3417 259.812 100.062 258.986C100.699 258.265 100.477 258.739 100.632 258.013C101.29 255.023 99.5847 255.669 99.3836 254.222C99.0316 251.643 98.6503 252.742 98.1977 251.429C97.4225 249.261 96.882 250.603 96.9239 248.326C99.5512 246.578 100.284 241.625 103.75 239.306C104.525 238.794 108.393 234.458 108.422 233.07C108.443 231.322 113.572 226.34 114.493 223.547C114.506 223.522 116.794 220.268 116.941 220.091C116.962 220.066 118.043 217.613 118.638 216.959C119.442 216.078 120.737 212.916 121.403 210.459C122.027 209.381 122.56 208.299 122.803 207.276C123.704 203.594 125.824 203.208 124.659 200.554C122.338 195.207 123.322 196.398 119.58 190.666C119.656 190.125 119.061 187.135 118.776 186.841C117.301 185.311 115.575 184.182 115.608 182.476C115.663 179.41 114.992 180.387 113.182 176.911C111.623 173.971 110.492 173.388 109.155 170.172C108.552 168.746 105.384 165.375 105.531 163.949C105.011 163.093 106.188 161.668 103.603 159.986C103.138 159.68 103.188 157.789 100.984 156.027C100.888 155.956 100.008 154.153 99.5009 153.658C96.3959 150.622 98.3025 152.257 97.5315 150.886C96.4295 148.957 95.2227 146.915 94.414 144.86C92.8468 140.784 91.6694 140.956 90.5129 138.993C88.9751 136.393 88.0742 136.226 86.9219 132.896C86.2849 131.101 81.6548 125.205 81.3028 123.259C80.9843 121.385 74.5188 114.491 73.3456 111.782C73.2408 111.568 72.7506 110.918 72.5829 110.733C72.1053 106.75 69.3816 105.399 67.7516 101.986C67.01 100.426 66.0462 100.082 65.514 98.1571C64.7808 95.423 60.7456 91.4643 60.3643 90.3279C59.5681 88.0257 56.0819 84.2934 56.283 82.1757C56.2956 82.1422 52.7339 75.81 52.4783 75.6339C52.2352 75.4577 52.1514 75.2355 51.9168 75.2439C50.094 72.9123 53.2954 74.422 48.0073 69.9559C44.6258 67.0959 42.3589 59.6818 37.1253 54.9641C35.9604 53.9158 38.7679 53.4671 31.0328 48.2755C24.1776 43.6627 25.0533 39.4901 20.4147 33.6738C16.9494 29.3209 18.4453 26.4023 13.2076 19.8394C9.62492 15.344 6.5535 10.3873 3.91367 5.42638C2.8745 3.49738 0.649483 1.9332 0.0125732 0V9.01602H0Z" fill="white"/>
<path d="M5.61909 36.4834C4.77103 35.4633 1.38636 19.5785 0.0123291 9.1102L0.00419617 315.397C1.88979 313.447 6.19315 310.34 8.0159 309.094C24.6511 297.826 20.9427 293.088 31.192 286.37C43.7626 278.113 4.7601 288.366 24.7265 280.293C40.3057 273.995 47.6931 256.801 53.8904 257.141C61.1311 257.543 74.7367 251.224 75.491 251.257C89.1175 251.891 93.0815 234.823 96.9616 231.611C100.544 228.655 117.976 209.193 118.168 209.067C116.262 208.316 106.511 204.064 104.592 200.982C96.5929 188.175 89.9263 198.772 89.4486 191.32C89.2265 187.873 70.5339 182.446 70.3412 182.446C43.4651 182.836 82.2749 175.309 80.5569 175.535C80.3767 175.267 57.9088 156.476 57.4521 156.74C41.6508 165.748 21.8855 156.275 29.3902 147.519C50.5759 122.748 61.4453 134.024 35.6629 102.493C-24.7767 28.5954 60.8964 103.768 5.61909 36.4834Z" fill="#275490"/>
<path d="M5.32577 315.191C2.60213 316.345 0.917664 316.898 0.00419617 317.028L0.00837708 472.51C0.582436 470.942 1.17326 469.164 1.78922 467.063C8.01169 445.727 0.888336 459.045 14.7831 439.529C22.1285 429.229 39.254 419.362 41.6801 409.809C46.2474 391.748 62.0278 378.534 62.8868 372.189C68.4095 362.31 71.4516 366.436 74.1752 349.817C74.2171 349.607 74.3219 349.218 74.5021 348.681C66.4275 356.187 59.1156 365.799 52.5537 377.515C56.9534 362.154 65.7152 348.848 78.8473 337.597C84.6969 323.411 94.2128 301.76 96.6096 298.816C101.261 293.079 101.747 284.583 96.6515 286.902C84.7052 292.324 80.36 279.341 70.8859 289.313C61.9649 298.69 63.9134 297.998 62.5683 293.951C60.5109 293.205 58.3278 295.021 54.9463 292.341C51.7157 298.229 66.0001 293.587 44.0099 304.171C32.5329 309.694 60.3852 288.789 44.1272 288.525C40.7373 288.471 30.224 304.662 27.6471 308.863C26.1386 311.308 9.74644 313.321 5.32577 315.191Z" fill="#275490"/>
</svg>

<svg xmlns="http://www.w3.org/2000/svg" width="125" height="480" fill="none"><path fill="#fff" fill-rule="evenodd" d="m0 9.016.012.094c1.374 10.468 4.759 26.353 5.607 27.373 55.277 67.285-30.396-7.888 30.044 66.01 25.782 31.531 14.913 20.255-6.273 45.026-7.505 8.756 12.261 18.229 28.062 9.221.457-.264 22.925 18.527 23.105 18.795 1.718-.226-37.092 7.301-10.216 6.911.193 0 18.885 5.427 19.107 8.874.478 7.452 7.144-3.145 15.143 9.662 1.919 3.082 11.67 7.334 13.576 8.085-.192.126-17.624 19.588-21.206 22.544-3.88 3.212-7.844 20.28-21.471 19.646-.754-.033-14.36 6.286-21.601 5.884-6.197-.34-13.585 16.854-29.164 23.152-19.966 8.073 19.036-2.18 6.465 6.077-10.249 6.718-6.541 11.456-23.176 22.724-1.823 1.246-6.126 4.353-8.012 6.303v1.631c.913-.13 2.598-.683 5.322-1.837 4.421-1.87 20.813-3.883 22.321-6.328 2.577-4.201 13.09-20.392 16.48-20.338 16.258.264-11.594 21.169-.117 15.646 21.99-10.584 7.706-5.942 10.936-11.83 3.382 2.68 5.565.864 7.622 1.61 1.345 4.047-.603 4.739 8.318-4.638 9.474-9.972 13.819 3.011 25.766-2.411 5.096-2.319 4.609 6.177-.042 11.914-2.397 2.944-11.913 24.595-17.762 38.781-13.132 11.251-21.894 24.557-26.294 39.918 6.562-11.716 13.874-21.328 21.948-28.834-.18.537-.285.926-.327 1.136-2.724 16.619-5.766 12.493-11.288 22.372-.859 6.345-16.639 19.559-21.207 37.62-2.426 9.553-19.552 19.42-26.897 29.72-13.895 19.516-6.771 6.198-12.994 27.534a86.694 86.694 0 0 1-1.781 5.447V480c3.951-11.549 13.84-18.766 16.694-27.01 5.594-16.237 17.687-24.499 29.545-34.999 12.529-11.088 11.171-26.83 18.131-32.584 4.789-3.954 17.075-27.064 19.149-33.401.147-.159.235-.57.415-.834.582-.864.582-1.284.93-1.913.826-1.446-.021-1.878.013-3.442 0-.588 1.249-2.567 1.42-2.63.096-.172.415-.939.499-1.048.825-.986 2.661-3.573 2.786-4.793.084-.868 1.123-2.403 1.324-3.036.553-1.686 1.814-2.189 2.225-4.601.319-1.887.943-4.315 1.94-5.963.201.021 5.808-20.049 6.093-21.139.042-.197.234-.659.498-1.25 4.719-4.202 5.682-11.02 8.649-16.308 1.358-2.437-3.784-12.082-5.988-15.487-1.165-1.786-1.144-2.742-2.128-3.912-.604-.718-2.862-5.838-2.142-6.664.637-.721.415-.247.57-.973.658-2.99-1.047-2.344-1.248-3.791-.352-2.579-.733-1.48-1.186-2.793-.775-2.168-1.316-.826-1.274-3.103 2.627-1.748 3.36-6.701 6.826-9.02.775-.512 4.643-4.848 4.672-6.236.021-1.748 5.15-6.73 6.071-9.523.013-.025 2.301-3.279 2.448-3.456.021-.025 1.102-2.478 1.697-3.132.804-.881 2.099-4.043 2.765-6.5.624-1.078 1.157-2.16 1.4-3.183.901-3.682 3.021-4.068 1.856-6.722-2.321-5.347-1.337-4.156-5.079-9.888.076-.541-.519-3.531-.804-3.825-1.475-1.53-3.201-2.659-3.168-4.365.055-3.066-.616-2.089-2.426-5.565-1.559-2.94-2.69-3.523-4.027-6.739-.603-1.426-3.771-4.797-3.624-6.223-.52-.856.657-2.281-1.928-3.963-.465-.306-.415-2.197-2.619-3.959-.096-.071-.976-1.874-1.483-2.369-3.105-3.036-1.198-1.401-1.969-2.772-1.102-1.929-2.309-3.971-3.117-6.026-1.567-4.076-2.745-3.904-3.901-5.867-1.538-2.6-2.439-2.767-3.591-6.097-.637-1.795-5.267-7.691-5.619-9.637-.319-1.874-6.784-8.768-7.957-11.477-.105-.214-.595-.864-.763-1.049-.478-3.983-3.201-5.334-4.831-8.747-.742-1.56-1.705-1.904-2.238-3.829-.733-2.734-4.768-6.693-5.15-7.829-.796-2.302-4.282-6.034-4.081-8.152.013-.034-3.549-6.366-3.805-6.542-.243-.176-.327-.398-.561-.39-1.823-2.332 1.379-.822-3.91-5.288-3.382-2.86-5.648-10.274-10.882-14.992-1.165-1.048 1.643-1.497-6.093-6.689-6.855-4.613-5.98-8.785-10.618-14.602-3.465-4.353-1.969-7.271-7.207-13.834-3.583-4.495-6.654-9.452-9.294-14.413C2.875 3.497.649 1.933.013 0v9.016H0z"/><path fill="#275490" d="M5.619 36.483C4.771 35.463 1.386 19.579.012 9.11L.004 315.397c1.886-1.95 6.189-5.057 8.012-6.303 16.635-11.268 12.927-16.006 23.176-22.724 12.571-8.257-26.432 1.996-6.465-6.077 15.579-6.298 22.967-23.492 29.164-23.152 7.241.402 20.846-5.917 21.601-5.884 13.627.634 17.591-16.434 21.471-19.646 3.582-2.956 21.014-22.418 21.206-22.544-1.906-.751-11.657-5.003-13.576-8.085-7.999-12.807-14.666-2.21-15.143-9.662-.222-3.447-18.915-8.874-19.107-8.874-26.876.39 11.934-7.137 10.216-6.911-.18-.268-22.648-19.059-23.105-18.795-15.801 9.008-35.567-.465-28.062-9.221 21.186-24.771 32.055-13.495 6.273-45.026-60.44-73.898 25.234 1.275-30.044-66.01zm-.293 278.708c-2.724 1.154-4.408 1.707-5.322 1.837L.008 472.51l1.781-5.447c6.222-21.336-.901-8.018 12.994-27.534 7.345-10.3 24.471-20.167 26.897-29.72 4.567-18.061 20.348-31.275 21.207-37.62 5.523-9.879 8.565-5.753 11.288-22.372.042-.21.147-.599.327-1.136-8.075 7.506-15.386 17.118-21.948 28.834 4.4-15.361 13.161-28.667 26.294-39.918 5.85-14.186 15.365-35.837 17.762-38.781 4.651-5.737 5.137-14.233.042-11.914-11.946 5.422-16.291-7.561-25.766 2.411-8.921 9.377-6.973 8.685-8.318 4.638-2.057-.746-4.24 1.07-7.622-1.61-3.231 5.888 11.054 1.246-10.936 11.83-11.477 5.523 16.375-15.382.117-15.646-3.39-.054-13.903 16.137-16.48 20.338-1.508 2.445-17.901 4.458-22.321 6.328z"/></svg>
